flaticon/household/office-chair-2.svg

<svg xmlns="http://www.w3.org/2000/svg" width="32" height="32" viewBox="0 0 24 24">
    <path d="M 20.398438 9.601562 L 19.601562 9.601562 C 18.9375 9.601562 18.398438 10.136719 18.398438 10.800781 C 18.398438 11.460938 18.9375 12 19.601562 12 L 19.601562 12.800781 C 19.601562 13.34375 19.238281 13.796875 18.742188 13.945312 C 18.535156 13.0625 17.746094 12.398438 16.800781 12.398438 L 14.871094 12.398438 C 16.503906 11.421875 17.601562 9.636719 17.601562 7.601562 L 17.601562 3.148438 C 17.601562 1.410156 16.1875 0 14.453125 0 L 9.546875 0 C 7.8125 0 6.398438 1.410156 6.398438 3.148438 L 6.398438 7.601562 C 6.398438 9.636719 7.496094 11.421875 9.128906 12.398438 L 7.199219 12.398438 C 6.253906 12.398438 5.464844 13.0625 5.257812 13.945312 C 4.761719 13.796875 4.398438 13.34375 4.398438 12.800781 L 4.398438 12 C 5.0625 12 5.601562 11.460938 5.601562 10.800781 C 5.601562 10.136719 5.0625 9.601562 4.398438 9.601562 L 3.601562 9.601562 C 2.9375 9.601562 2.398438 10.136719 2.398438 10.800781 C 2.398438 11.460938 2.9375 12 3.601562 12 L 3.601562 12.800781 C 3.601562 13.765625 4.289062 14.574219 5.199219 14.757812 L 5.199219 14.800781 L 10.398438 14.800781 L 10.398438 16 L 10.800781 16 L 10.800781 17.199219 L 11.601562 17.199219 L 11.601562 18 L 10.800781 18 L 10.800781 18.480469 L 5.910156 19.609375 C 5.898438 19.613281 5.890625 19.621094 5.878906 19.625 C 5.851562 19.632812 5.828125 19.644531 5.804688 19.65625 C 5.78125 19.671875 5.761719 19.683594 5.742188 19.699219 C 5.722656 19.714844 5.707031 19.734375 5.691406 19.753906 C 5.675781 19.773438 5.660156 19.792969 5.648438 19.816406 C 5.636719 19.839844 5.628906 19.863281 5.621094 19.886719 C 5.613281 19.914062 5.609375 19.9375 5.605469 19.964844 C 5.605469 19.976562 5.601562 19.988281 5.601562 20 L 5.601562 20.421875 C 4.703125 20.519531 4 21.277344 4 22.199219 C 4 23.191406 4.808594 24 5.800781 24 C 6.792969 24 7.601562 23.191406 7.601562 22.199219 C 7.601562 21.417969 7.097656 20.757812 6.398438 20.511719 L 6.398438 20.316406 L 10.800781 19.304688 L 10.800781 19.433594 L 9.832031 20.402344 C 9.820312 20.402344 9.8125 20.398438 9.800781 20.398438 C 8.808594 20.398438 8 21.207031 8 22.199219 C 8 23.191406 8.808594 24 9.800781 24 C 10.792969 24 11.601562 23.191406 11.601562 22.199219 C 11.601562 21.539062 11.238281 20.96875 10.710938 20.65625 L 11.367188 20 L 12.632812 20 L 13.289062 20.65625 C 12.761719 20.96875 12.398438 21.539062 12.398438 22.199219 C 12.398438 23.191406 13.207031 24 14.199219 24 C 15.191406 24 16 23.191406 16 22.199219 C 16 21.207031 15.191406 20.398438 14.199219 20.398438 C 14.1875 20.398438 14.179688 20.402344 14.167969 20.402344 L 13.199219 19.433594 L 13.199219 19.304688 L 17.601562 20.316406 L 17.601562 20.511719 C 16.902344 20.757812 16.398438 21.417969 16.398438 22.199219 C 16.398438 23.191406 17.207031 24 18.199219 24 C 19.191406 24 20 23.191406 20 22.199219 C 20 21.277344 19.296875 20.519531 18.398438 20.421875 L 18.398438 20 C 18.398438 19.988281 18.394531 19.976562 18.394531 19.964844 C 18.390625 19.9375 18.386719 19.914062 18.378906 19.886719 C 18.371094 19.863281 18.363281 19.839844 18.351562 19.816406 C 18.339844 19.792969 18.324219 19.773438 18.308594 19.753906 C 18.292969 19.734375 18.277344 19.714844 18.257812 19.699219 C 18.238281 19.683594 18.21875 19.671875 18.195312 19.65625 C 18.171875 19.644531 18.148438 19.632812 18.121094 19.625 C 18.109375 19.621094 18.101562 19.613281 18.089844 19.609375 L 13.199219 18.480469 L 13.199219 18 L 12.398438 18 L 12.398438 17.199219 L 13.199219 17.199219 L 13.199219 16 L 13.601562 16 L 13.601562 14.964844 L 14.917969 16.28125 C 14.953125 16.320312 15 16.347656 15.046875 16.371094 C 15.097656 16.390625 15.148438 16.398438 15.199219 16.398438 L 16.398438 16.398438 C 16.621094 16.398438 16.800781 16.222656 16.800781 16 C 16.800781 15.777344 16.621094 15.601562 16.398438 15.601562 L 15.367188 15.601562 L 14.566406 14.800781 L 18.800781 14.800781 L 18.800781 14.757812 C 19.710938 14.574219 20.398438 13.765625 20.398438 12.800781 L 20.398438 12 C 21.0625 12 21.601562 11.460938 21.601562 10.800781 C 21.601562 10.136719 21.0625 9.601562 20.398438 9.601562 Z M 3.199219 10.800781 C 3.199219 10.578125 3.378906 10.398438 3.601562 10.398438 L 4.398438 10.398438 C 4.621094 10.398438 4.800781 10.578125 4.800781 10.800781 C 4.800781 11.019531 4.621094 11.199219 4.398438 11.199219 L 3.601562 11.199219 C 3.378906 11.199219 3.199219 11.019531 3.199219 10.800781 Z M 6.800781 22.199219 C 6.800781 22.75 6.351562 23.199219 5.800781 23.199219 C 5.25 23.199219 4.800781 22.75 4.800781 22.199219 C 4.800781 21.648438 5.25 21.199219 5.800781 21.199219 C 6.351562 21.199219 6.800781 21.648438 6.800781 22.199219 Z M 9.800781 23.199219 C 9.25 23.199219 8.800781 22.75 8.800781 22.199219 C 8.800781 21.648438 9.25 21.199219 9.800781 21.199219 C 10.351562 21.199219 10.800781 21.648438 10.800781 22.199219 C 10.800781 22.75 10.351562 23.199219 9.800781 23.199219 Z M 15.199219 22.199219 C 15.199219 22.75 14.75 23.199219 14.199219 23.199219 C 13.648438 23.199219 13.199219 22.75 13.199219 22.199219 C 13.199219 21.648438 13.648438 21.199219 14.199219 21.199219 C 14.75 21.199219 15.199219 21.648438 15.199219 22.199219 Z M 19.199219 22.199219 C 19.199219 22.75 18.75 23.199219 18.199219 23.199219 C 17.648438 23.199219 17.199219 22.75 17.199219 22.199219 C 17.199219 21.648438 17.648438 21.199219 18.199219 21.199219 C 18.75 21.199219 19.199219 21.648438 19.199219 22.199219 Z M 11.601562 18.800781 L 12.398438 18.800781 L 12.398438 19.199219 L 11.601562 19.199219 Z M 7.199219 7.601562 L 7.199219 3.148438 C 7.199219 1.851562 8.253906 0.800781 9.546875 0.800781 L 14.453125 0.800781 C 15.746094 0.800781 16.800781 1.851562 16.800781 3.148438 L 16.800781 7.601562 C 16.800781 10.246094 14.648438 12.398438 12 12.398438 C 9.351562 12.398438 7.199219 10.246094 7.199219 7.601562 Z M 12.800781 15.199219 L 11.199219 15.199219 L 11.199219 14.800781 L 12.800781 14.800781 Z M 12.398438 16.398438 L 11.601562 16.398438 L 11.601562 16 L 12.398438 16 Z M 13.601562 14 L 6.070312 14 C 6.234375 13.535156 6.679688 13.199219 7.199219 13.199219 L 16.800781 13.199219 C 17.320312 13.199219 17.765625 13.535156 17.929688 14 Z M 20.398438 11.199219 L 19.601562 11.199219 C 19.378906 11.199219 19.199219 11.019531 19.199219 10.800781 C 19.199219 10.578125 19.378906 10.398438 19.601562 10.398438 L 20.398438 10.398438 C 20.621094 10.398438 20.800781 10.578125 20.800781 10.800781 C 20.800781 11.019531 20.621094 11.199219 20.398438 11.199219 Z M 20.398438 11.199219"/>
    <path d="M 13.484375 3.316406 C 13.328125 3.160156 13.074219 3.160156 12.917969 3.316406 L 12.550781 3.683594 C 12.203125 3.515625 11.796875 3.515625 11.449219 3.683594 L 11.082031 3.316406 C 10.925781 3.160156 10.671875 3.160156 10.515625 3.316406 C 10.359375 3.472656 10.359375 3.726562 10.515625 3.882812 L 10.886719 4.25 C 10.714844 4.597656 10.714844 5.003906 10.886719 5.347656 L 10.515625 5.71875 C 10.359375 5.875 10.359375 6.125 10.515625 6.28125 C 10.59375 6.359375 10.699219 6.398438 10.800781 6.398438 C 10.902344 6.398438 11.003906 6.359375 11.082031 6.28125 L 11.449219 5.914062 C 11.625 6 11.8125 6.046875 12 6.046875 C 12.1875 6.046875 12.375 6 12.550781 5.914062 L 12.917969 6.28125 C 12.996094 6.359375 13.097656 6.398438 13.199219 6.398438 C 13.300781 6.398438 13.40625 6.359375 13.484375 6.28125 C 13.640625 6.125 13.640625 5.875 13.484375 5.71875 L 13.113281 5.347656 C 13.285156 5.003906 13.285156 4.597656 13.113281 4.25 L 13.484375 3.882812 C 13.640625 3.726562 13.640625 3.472656 13.484375 3.316406 Z M 11.683594 5.117188 C 11.507812 4.941406 11.507812 4.65625 11.683594 4.484375 C 11.769531 4.394531 11.886719 4.351562 12 4.351562 C 12.113281 4.351562 12.230469 4.394531 12.316406 4.484375 C 12.492188 4.65625 12.492188 4.941406 12.316406 5.117188 C 12.140625 5.292969 11.859375 5.292969 11.683594 5.117188 Z M 11.683594 5.117188"/>
</svg>

<svg xmlns="http://www.w3.org/2000/svg" width="32" height="32" viewBox="0 0 24 24">
    <path d="M20.398 9.602h-.796a1.2 1.2 0 0 0-1.204 1.199c0 .66.54 1.199 1.204 1.199v.8c0 .544-.364.997-.86 1.145a2 2 0 0 0-1.941-1.547h-1.93a5.59 5.59 0 0 0 2.73-4.796V3.148A3.152 3.152 0 0 0 14.454 0H9.547a3.152 3.152 0 0 0-3.149 3.148v4.454a5.59 5.59 0 0 0 2.73 4.796H7.2a2 2 0 0 0-1.941 1.547 1.196 1.196 0 0 1-.86-1.144V12a1.2 1.2 0 0 0 0-2.398h-.796A1.2 1.2 0 0 0 2.398 10.8c0 .66.54 1.199 1.204 1.199v.8c0 .966.687 1.774 1.597 1.958v.043h5.2V16h.402v1.2h.8v.8h-.8v.48l-4.89 1.13c-.013.003-.02.011-.032.015-.027.008-.05.02-.074.031-.024.016-.043.028-.063.043-.02.016-.035.035-.05.055-.016.02-.032.039-.044.062a.522.522 0 0 0-.043.149c0 .012-.003.023-.003.035v.422A1.794 1.794 0 0 0 4 22.199C4 23.191 4.809 24 5.8 24c.993 0 1.802-.809 1.802-1.8 0-.782-.504-1.442-1.204-1.688v-.196l4.403-1.011v.129l-.969.968c-.012 0-.02-.004-.031-.004-.992 0-1.801.809-1.801 1.801C8 23.191 8.809 24 9.8 24c.993 0 1.802-.809 1.802-1.8 0-.66-.364-1.231-.891-1.544l.656-.656h1.266l.656.656c-.527.313-.89.883-.89 1.543 0 .992.808 1.801 1.8 1.801S16 23.191 16 22.2c0-.993-.809-1.802-1.8-1.802-.012 0-.02.004-.032.004l-.969-.968v-.13l4.403 1.012v.196c-.7.246-1.204.906-1.204 1.687 0 .992.809 1.801 1.801 1.801.992 0 1.801-.809 1.801-1.8 0-.923-.703-1.68-1.602-1.778V20c0-.012-.003-.023-.003-.035a.553.553 0 0 0-.043-.149c-.012-.023-.028-.043-.043-.062-.016-.02-.032-.04-.051-.055-.02-.015-.04-.027-.063-.043a.423.423 0 0 0-.074-.031c-.012-.004-.02-.012-.031-.016L13.2 18.48V18h-.802v-.8h.801V16h.403v-1.035l1.316 1.316c.035.04.082.067.129.09.05.02.101.027.152.027h1.2a.398.398 0 1 0 0-.796h-1.032l-.8-.801H18.8v-.043a1.999 1.999 0 0 0 1.597-1.957V12a1.2 1.2 0 0 0 0-2.398zM3.2 10.8c0-.223.18-.403.403-.403h.796a.401.401 0 0 1 0 .8l-.796.001a.401.401 0 0 1-.403-.398zm3.602 11.398c0 .551-.45 1-1 1-.551 0-1-.449-1-1 0-.55.449-1 1-1 .55 0 1 .45 1 1zm3 1c-.551 0-1-.449-1-1 0-.55.449-1 1-1 .55 0 1 .45 1 1 0 .551-.45 1-1 1zm5.398-1c0 .551-.449 1-1 1-.55 0-1-.449-1-1 0-.55.45-1 1-1 .551 0 1 .45 1 1zm4 0c0 .551-.449 1-1 1-.55 0-1-.449-1-1 0-.55.45-1 1-1 .551 0 1 .45 1 1zm-7.597-3.398h.796v.398h-.796zM7.199 7.6V3.149A2.35 2.35 0 0 1 9.547.801h4.906a2.35 2.35 0 0 1 2.348 2.347v4.454A4.804 4.804 0 0 1 12 12.398a4.804 4.804 0 0 1-4.8-4.796zm5.602 7.598h-1.602v-.398h1.602zm-.403 1.2h-.796V16h.796zM13.602 14H6.07c.164-.465.61-.8 1.13-.8h9.6c.52 0 .966.335 1.13.8zm6.796-2.8h-.796a.401.401 0 1 1 0-.802h.796a.401.401 0 0 1 0 .8zm0 0"/>
    <path d="M13.484 3.316a.4.4 0 0 0-.566 0l-.367.368a1.267 1.267 0 0 0-1.102 0l-.367-.368a.4.4 0 0 0-.566.567l.37.367a1.233 1.233 0 0 0 0 1.098l-.37.37a.396.396 0 0 0 0 .563.405.405 0 0 0 .285.117c.101 0 .203-.039.281-.117l.367-.367c.176.086.364.133.551.133.188 0 .375-.047.55-.133l.368.367c.078.078.18.117.281.117.102 0 .207-.039.285-.117a.396.396 0 0 0 0-.562l-.37-.371c.171-.344.171-.75 0-1.098l.37-.367a.4.4 0 0 0 0-.567zm-1.8 1.801a.446.446 0 0 1 0-.633.437.437 0 0 1 .316-.132c.113 0 .23.043.316.132a.446.446 0 0 1 0 .633.446.446 0 0 1-.632 0zm0 0"/>
</svg>
